X:1
T:From Heaven Above to Earth I Come
T:Text: Martin Luther, 1535; tr. composite; based on Luke 2:10-14 Tune: V. Schumann's Geistliche Lieder, 1539
T:LM VOM HIMMEL HOCH www.hymnary.org/text/from_heaven_above_to_earth_i_come 
T:From Heaven Above to Earth I Come
T:This hymn is in the public domain. You may freely use this score for personal and congregational worship. If you reproduce the score, please credit Hymnary.org as the source. 
T:This hymn is in the public domain. You may freely use this score for personal and congregational worship. If you reproduce the score, please credit Hymnary.org as the source. 
Z:This hymn is in the public domain. You may freely use this score for personal and congregational worship. If you reproduce the score, please credit Hymnary.org as the source.
%%score ( 1 2 ) ( 3 4 )
L:1/8
M:8/4
K:C
V:1 treble nm="SOPRANO ALTO" snm="S. A."
V:2 treble 
V:3 bass nm="TENOR BASS" snm="T. B."
V:4 bass 
V:1
"^1""^2""^3""^4""^5" c2 B2 A2 B2 G2 A2 B2 c2 | z c c2 G2 | G2 E2 G2 F2 E2 | z E A2 A2 G2 B2 |1 %4
w: "From heaven a- bove to earth I come|to bring good|news to ev- ery home!|Glad tid- ings of great|
w: "To you this night is born a child|of Mar- y,|cho- sen vir- gin mild;|this lit- tle child of|
w: "This is the Christ, God's Son most high,|who hears your|sad and bit- ter cry;|he will him- self your|
w: "These are the signs which you shall mark:|the swad- dling|clothes and man- ger dark.|There you shall find the|
w: We too must join the an- gel throng|to sing a-|gain this joy- ful song:|"All glo- ry be to|
 c2 A2 G2 | z c B2 A2 G2 G2 FE D2 C6 |] %6
w: joy I bring|to all the world, and glad- * ly sing:|
w: low- ly birth|shall be the joy of all * the earth.|
w: Sav- ior be,|from all your sins to set * you free.|
w: in- fant laid|by whom the heavens and earth * were made."|
w: God in heaven,|who un- to us his Son * had given."|
V:2
 E2 D2 D2 D2 C2 C2 F2 E2 | x E E2 E2 | D2 C2 D2 D2 B,2 | x C C2 D2 D2 D2 |1 E2 DC B,2 | %5
 x C D2 DC B,2 C2 A,2 B,2 C6 |] %6
V:3
 G,2 G,2 ^F,2 G,2 G,2 C2 D2 G,2 | z G, A,2 B,2 | G,2 G,2 B,2 A,2 ^G,2 | z A, A,2 F,2 G,2 G,2 |1 %4
 G,2 ^F,2 G,2 | z E, G,2 =F,2 G,2 E,2 F,2 G,2 E,6 |] %6
V:4
 C,2 G,2 D,2 G,2 E,2 =F,E, D,2 C,2 | x C, A,,2 E,2 | B,,2 C,2 G,,2 D,2 E,2 | %3
 x A, F,2 D,C, B,,2 G,,2 |1 C,2 D,2 G,,2 | x A,, B,,2 D,2 E,2 C,2 D,2 G,,2 C,6 |] %6

